offer/images/tiny/testing.svg

<svg height="45" viewBox="0 0 43 45" width="43" xmlns="http://www.w3.org/2000/svg"><g fill="none" fill-rule="evenodd"><path d="m3.03222656 9.7734375c-.38671875 0-.703125.3164062-.703125.703125v.7558594c0 .3867187.31640625.703125.703125.703125s.703125-.3164063.703125-.703125v-.7558594c0-.3867188-.31640625-.703125-.703125-.703125z" fill="#828282" fill-rule="nonzero"/><path d="m39.8583984 5.26464844c-.3867187 0-.703125.31640625-.703125.703125v.75585937c0 .38671875.3164063.703125.703125.703125.3867188 0 .703125-.31640625.703125-.703125v-.75585937c0-.39550781-.3164062-.703125-.703125-.703125z" fill="#828282" fill-rule="nonzero"/><path d="m15.8994141 19.1513672-6.51269535 17.3759766 1.31835935.4921875 2.7949219-7.444336c.1054688-.2724609.3691406-.4570312.6591797-.4570312h6.2138672v-1.40625h-5.1503906c-.2285157 0-.4482422-.1142578-.5800782-.3076172-.1318359-.1933594-.1582031-.4306641-.0791015-.6503906l2.3291015-6.1962891c.1054688-.2724609.3691407-.4570313.6591797-.4570313h2.8300781v-1.40625h-3.805664c-.3076172 0-.5712891.1845704-.6767578.4570313z"/><path d="m16.2246094 26.3056641h4.1396484v-2.4873047-2.3027344h-2.3378906z"/><path d="m7.23339844 38.9355469h13.13085936v-2.1533203-2.4433594-2.8212891-.984375h-5.7216797l-2.8652343 7.6464844c-.1054688.28125-.3779297.4570313-.6591797.4570313-.0791016 0-.1669922-.0175782-.2460938-.0439454l-2.63671874-.993164c-.17578125-.0615235-.31640625-.2021485-.39550781-.3691406-.07910156-.1669922-.08789063-.3603516-.01757813-.5361329l6.76757818-18.0351562c.3076171-.8173828 1.0986328-1.3710938 1.977539-1.3710938h3.8056641v-.984375-.571289h-13.13964846z"/><path d="m21.770508 32.220703h1v1.40625h-1z"/><path d="m1.48535156 12.7792969h18.87890624v-3.80566409-.05273437h-18.87890624z"/><path d="m21.7705078 8.21777344v.05273437h19.6347656v-3.85839843h-19.6347656z"/><path d="m42.1171875 3.00585938h-20.3466797v-2.30273438c0-.38671875-.3164062-.703125-.703125-.703125-.3867187 0-.703125.31640625-.703125.703125v3.00585938 3.80566406h-19.5908203c-.38671875 0-.703125.31640625-.703125.703125v5.26464846 27.8085937c0 .3867188.31640625.703125.703125.703125h19.5908203v2.3027344c0 .3867188.3164063.703125.703125.703125.3867188 0 .703125-.3164062.703125-.703125v-3.0058594-3.805664h20.3378906c.3867188 0 .703125-.3164063.703125-.703125v-27.80859379-5.26464843c.0087891-.38671876-.3076172-.703125-.6943359-.703125zm-21.7529297 12.72656252v.571289.984375 1.40625 1.40625 1.40625 2.3115235 2.4873047 1.40625 1.40625 1.40625.984375 2.821289 2.4433594 2.1621094 1.6523437h-18.87890624v-26.4023437h18.87890624zm0-6.75878909v3.80566409h-18.87890624v-3.8496094h18.87890624zm21.0410156 27.10546879h-19.6347656v-.6591797-.3779297-1.40625-1.40625-1.40625-.984375-2.8212891-2.4960937-1.40625-1.40625-1.40625-2.3027344-.984375-1.40625-1.40625-1.40625-3.10253906h19.6347656zm0-27.80859379h-19.6347656v-.04394531-3.81445312h19.6347656z" fill="#828282" fill-rule="nonzero"/><path d="m31.7285156 27.6679688c0-1.7402344-1.40625-3.1464844-3.1464844-3.1464844h-6.8115234v2.4873047 2.821289.984375h6.8115234c1.7402344 0 3.1464844-1.415039 3.1464844-3.1464843z"/><path d="m29.4785156 18.6503906c0-.9052734-.7382812-1.6435547-1.6435547-1.6435547h-6.055664v.984375 2.3027344h6.055664c.9052735 0 1.6435547-.7382812 1.6435547-1.6435547z"/><g fill="#a03ee5" fill-rule="nonzero"><path d="m14.5810547 18.6591797-6.76757814 18.0351562c-.06152344.1757813-.06152344.3691407.01757813.5361329.07910156.1669921.21972656.2988281.39550781.3691406l2.6367187.993164c.0791016.0263672.1669922.0439454.2460938.0439454.28125 0 .5537109-.1757813.6591797-.4570313l2.8652344-7.6464844h5.7216797v-1.40625h-6.2050782c-.290039 0-.5537109.1845703-.6591797.4570313l-2.7949218 7.4443359-1.31835941-.4921875 6.51269531-17.3759765c.1054687-.272461.3691406-.4570313.6591797-.4570313h3.805664l.0000001-1.4063548-3.8056641.0001048c-.8701172-.0087891-1.6611328.5361328-1.96875 1.3623047z"/><path d="m16.875 20.5576172-2.3291016 6.196289c-.0791015.2197266-.0527343.4570313.0791016.6503907.1318359.1933593.3515625.3076172.5800781.3076172h5.1503907l-.0000001-1.40625h-4.1396484l1.7929688-4.7900391h2.3378906v-1.40625h-2.8300781c-.272461-.0087891-.5361329.1757813-.6416016.4482422z"/><path d="m33.1435547 27.6679688c0-2.5136719-2.0478516-4.5527344-4.5527344-4.5527344h-6.8115234v1.40625h6.8115234c1.7314453 0 3.1376953 1.40625 3.1376953 3.1464844 0 1.7402343-1.415039 3.1464843-3.1464844 3.1464843h-6.8115234v1.40625h6.8115234c2.5136719 0 4.5615235-2.0390625 4.5615235-4.5527343z"/><path d="m35.9560547 27.6679688c0-2.390625-1.1689453-4.6230469-3.09375-6.0029297.5449219-.9052735.8349609-1.959961.8349609-3.0146485 0-3.234375-2.6367187-5.8710937-5.8710937-5.8710937h-6.0556641v1.40625h6.0556641c2.4609375 0 4.4648437 2.0039062 4.4648437 4.4648437 0 1.0195313-.3339844 1.9775391-.9755859 2.7773438-.1318359.1582031-.1845703.3691406-.140625.571289.0351562.2021485.1669922.3779297.3427734.4833985 1.8632813 1.0634765 3.0234375 3.0498047 3.0234375 5.1855468 0 3.2871094-2.671875 5.9677735-5.9677734 5.9677735h-6.8115235v1.40625h6.8115235c4.078125 0 7.3828125-3.3046875 7.3828125-7.3740234z"/><path d="m30.8847656 18.6503906c0-1.6875-1.3710937-3.0498047-3.0498047-3.0498047h-6.055664v1.40625h6.055664c.9052735 0 1.6435547.7382813 1.6435547 1.6435547 0 .9052735-.7382812 1.6435547-1.6435547 1.6435547h-6.055664v1.40625h6.055664c1.678711 0 3.0498047-1.3710937 3.0498047-3.0498047z"/></g></g></svg>

<?xml version="1.0" encoding="UTF-8"?>
<svg width="43px" height="45px" viewBox="0 0 43 45" version="1.1" xmlns="http://www.w3.org/2000/svg" xmlns:xlink="http://www.w3.org/1999/xlink">
    <!-- Generator: Sketch 52.2 (67145) - http://www.bohemiancoding.com/sketch -->
    <title>testing</title>
    <desc>Created with Sketch.</desc>
    <g id="Page-1" stroke="none" stroke-width="1" fill="none" fill-rule="evenodd">
        <g id="home" transform="translate(-685.000000, -1159.000000)">
            <g id="Group-5" transform="translate(665.000000, 1140.000000)">
                <g id="testing" transform="translate(20.000000, 19.000000)">
                    <path d="M3.03222656,9.7734375 C2.64550781,9.7734375 2.32910156,10.0898437 2.32910156,10.4765625 L2.32910156,11.2324219 C2.32910156,11.6191406 2.64550781,11.9355469 3.03222656,11.9355469 C3.41894531,11.9355469 3.73535156,11.6191406 3.73535156,11.2324219 L3.73535156,10.4765625 C3.73535156,10.0898437 3.41894531,9.7734375 3.03222656,9.7734375 Z" id="Shape" fill="#828282" fill-rule="nonzero"></path>
                    <path d="M39.8583984,5.26464844 C39.4716797,5.26464844 39.1552734,5.58105469 39.1552734,5.96777344 L39.1552734,6.72363281 C39.1552734,7.11035156 39.4716797,7.42675781 39.8583984,7.42675781 C40.2451172,7.42675781 40.5615234,7.11035156 40.5615234,6.72363281 L40.5615234,5.96777344 C40.5615234,5.57226563 40.2451172,5.26464844 39.8583984,5.26464844 Z" id="Shape" fill="#828282" fill-rule="nonzero"></path>
                    <g id="Group">
                        <path d="M15.8994141,19.1513672 L9.38671875,36.5273438 L10.7050781,37.0195313 L13.5,29.5751953 C13.6054688,29.3027344 13.8691406,29.1181641 14.1591797,29.1181641 L20.3730469,29.1181641 L20.3730469,27.7119141 L15.2226563,27.7119141 C14.9941406,27.7119141 14.7744141,27.5976563 14.6425781,27.4042969 C14.5107422,27.2109375 14.484375,26.9736328 14.5634766,26.7539063 L16.8925781,20.5576172 C16.9980469,20.2851563 17.2617188,20.1005859 17.5517578,20.1005859 L20.3818359,20.1005859 L20.3818359,18.6943359 L16.5761719,18.6943359 C16.2685547,18.6943359 16.0048828,18.8789063 15.8994141,19.1513672 Z" id="Shape"></path>
                        <polygon id="Shape" points="16.2246094 26.3056641 20.3642578 26.3056641 20.3642578 23.8183594 20.3642578 21.515625 18.0263672 21.515625"></polygon>
                        <path d="M7.23339844,38.9355469 L20.3642578,38.9355469 L20.3642578,36.7822266 L20.3642578,34.3388672 L20.3642578,31.5175781 L20.3642578,30.5332031 L14.6425781,30.5332031 L11.7773438,38.1796875 C11.671875,38.4609375 11.3994141,38.6367188 11.1181641,38.6367188 C11.0390625,38.6367188 10.9511719,38.6191406 10.8720703,38.5927734 L8.23535156,37.5996094 C8.05957031,37.5380859 7.91894531,37.3974609 7.83984375,37.2304688 C7.76074219,37.0634766 7.75195312,36.8701172 7.82226562,36.6943359 L14.5898438,18.6591797 C14.8974609,17.8417969 15.6884766,17.2880859 16.5673828,17.2880859 L20.3730469,17.2880859 L20.3730469,16.3037109 L20.3730469,15.7324219 L7.23339844,15.7324219 L7.23339844,38.9355469 Z" id="Shape"></path>
                        <rect id="Rectangle-path" x="21.7705078" y="32.2207031" width="1" height="1.40625"></rect>
                        <polygon id="Shape" points="1.48535156 12.7792969 20.3642578 12.7792969 20.3642578 8.97363281 20.3642578 8.92089844 1.48535156 8.92089844"></polygon>
                        <polygon id="Shape" points="21.7705078 8.21777344 21.7705078 8.27050781 41.4052734 8.27050781 41.4052734 4.41210938 21.7705078 4.41210938"></polygon>
                        <path d="M42.1171875,3.00585938 L21.7705078,3.00585938 L21.7705078,0.703125 C21.7705078,0.31640625 21.4541016,0 21.0673828,0 C20.6806641,0 20.3642578,0.31640625 20.3642578,0.703125 L20.3642578,3.70898438 L20.3642578,7.51464844 L0.7734375,7.51464844 C0.38671875,7.51464844 0.0703125,7.83105469 0.0703125,8.21777344 L0.0703125,13.4824219 L0.0703125,41.2910156 C0.0703125,41.6777344 0.38671875,41.9941406 0.7734375,41.9941406 L20.3642578,41.9941406 L20.3642578,44.296875 C20.3642578,44.6835938 20.6806641,45 21.0673828,45 C21.4541016,45 21.7705078,44.6835938 21.7705078,44.296875 L21.7705078,41.2910156 L21.7705078,37.4853516 L42.1083984,37.4853516 C42.4951172,37.4853516 42.8115234,37.1689453 42.8115234,36.7822266 L42.8115234,8.97363281 L42.8115234,3.70898438 C42.8203125,3.32226562 42.5039062,3.00585938 42.1171875,3.00585938 Z M20.3642578,15.7324219 L20.3642578,16.3037109 L20.3642578,17.2880859 L20.3642578,18.6943359 L20.3642578,20.1005859 L20.3642578,21.5068359 L20.3642578,23.8183594 L20.3642578,26.3056641 L20.3642578,27.7119141 L20.3642578,29.1181641 L20.3642578,30.5244141 L20.3642578,31.5087891 L20.3642578,34.3300781 L20.3642578,36.7734375 L20.3642578,38.9355469 L20.3642578,40.5878906 L1.48535156,40.5878906 L1.48535156,14.1855469 L20.3642578,14.1855469 L20.3642578,15.7324219 Z M20.3642578,8.97363281 L20.3642578,12.7792969 L1.48535156,12.7792969 L1.48535156,8.9296875 L20.3642578,8.9296875 L20.3642578,8.97363281 Z M41.4052734,36.0791016 L21.7705078,36.0791016 L21.7705078,35.4199219 L21.7705078,35.0419922 L21.7705078,33.6357422 L21.7705078,32.2294922 L21.7705078,30.8232422 L21.7705078,29.8388672 L21.7705078,27.0175781 L21.7705078,24.5214844 L21.7705078,23.1152344 L21.7705078,21.7089844 L21.7705078,20.3027344 L21.7705078,18 L21.7705078,17.015625 L21.7705078,15.609375 L21.7705078,14.203125 L21.7705078,12.796875 L21.7705078,9.69433594 L41.4052734,9.69433594 L41.4052734,36.0791016 Z M41.4052734,8.27050781 L21.7705078,8.27050781 L21.7705078,8.2265625 L21.7705078,4.41210938 L41.4052734,4.41210938 L41.4052734,8.27050781 Z" id="Shape" fill="#828282" fill-rule="nonzero"></path>
                        <path d="M31.7285156,27.6679688 C31.7285156,25.9277344 30.3222656,24.5214844 28.5820312,24.5214844 L21.7705078,24.5214844 L21.7705078,27.0087891 L21.7705078,29.8300781 L21.7705078,30.8144531 L28.5820312,30.8144531 C30.3222656,30.8144531 31.7285156,29.3994141 31.7285156,27.6679688 Z" id="Shape"></path>
                        <path d="M29.4785156,18.6503906 C29.4785156,17.7451172 28.7402344,17.0068359 27.8349609,17.0068359 L21.7792969,17.0068359 L21.7792969,17.9912109 L21.7792969,20.2939453 L27.8349609,20.2939453 C28.7402344,20.2939453 29.4785156,19.5556641 29.4785156,18.6503906 Z" id="Shape"></path>
                    </g>
                    <path d="M14.5810547,18.6591797 L7.81347656,36.6943359 C7.75195312,36.8701172 7.75195312,37.0634766 7.83105469,37.2304688 C7.91015625,37.3974609 8.05078125,37.5292969 8.2265625,37.5996094 L10.8632812,38.5927734 C10.9423828,38.6191406 11.0302734,38.6367188 11.109375,38.6367188 C11.390625,38.6367188 11.6630859,38.4609375 11.7685547,38.1796875 L14.6337891,30.5332031 L20.3554688,30.5332031 L20.3554688,29.1269531 L14.1503906,29.1269531 C13.8603516,29.1269531 13.5966797,29.3115234 13.4912109,29.5839844 L10.6962891,37.0283203 L9.37792969,36.5361328 L15.890625,19.1601563 C15.9960937,18.8876953 16.2597656,18.703125 16.5498047,18.703125 L20.3554687,18.703125 L20.3554688,17.2967702 L16.5498047,17.296875 C15.6796875,17.2880859 14.8886719,17.8330078 14.5810547,18.6591797 Z" id="Shape" fill="#A03EE5" fill-rule="nonzero"></path>
                    <path d="M16.875,20.5576172 L14.5458984,26.7539062 C14.4667969,26.9736328 14.4931641,27.2109375 14.625,27.4042969 C14.7568359,27.5976562 14.9765625,27.7119141 15.2050781,27.7119141 L20.3554688,27.7119141 L20.3554687,26.3056641 L16.2158203,26.3056641 L18.0087891,21.515625 L20.3466797,21.515625 L20.3466797,20.109375 L17.5166016,20.109375 C17.2441406,20.1005859 16.9804687,20.2851563 16.875,20.5576172 Z" id="Shape" fill="#A03EE5" fill-rule="nonzero"></path>
                    <path d="M33.1435547,27.6679688 C33.1435547,25.1542969 31.0957031,23.1152344 28.5908203,23.1152344 L21.7792969,23.1152344 L21.7792969,24.5214844 L28.5908203,24.5214844 C30.3222656,24.5214844 31.7285156,25.9277344 31.7285156,27.6679688 C31.7285156,29.4082031 30.3134766,30.8144531 28.5820312,30.8144531 L21.7705078,30.8144531 L21.7705078,32.2207031 L28.5820312,32.2207031 C31.0957031,32.2207031 33.1435547,30.1816406 33.1435547,27.6679688 Z" id="Shape" fill="#A03EE5" fill-rule="nonzero"></path>
                    <path d="M35.9560547,27.6679688 C35.9560547,25.2773438 34.7871094,23.0449219 32.8623047,21.6650391 C33.4072266,20.7597656 33.6972656,19.7050781 33.6972656,18.6503906 C33.6972656,15.4160156 31.0605469,12.7792969 27.8261719,12.7792969 L21.7705078,12.7792969 L21.7705078,14.1855469 L27.8261719,14.1855469 C30.2871094,14.1855469 32.2910156,16.1894531 32.2910156,18.6503906 C32.2910156,19.6699219 31.9570312,20.6279297 31.3154297,21.4277344 C31.1835938,21.5859375 31.1308594,21.796875 31.1748047,21.9990234 C31.2099609,22.2011719 31.3417969,22.3769531 31.5175781,22.4824219 C33.3808594,23.5458984 34.5410156,25.5322266 34.5410156,27.6679687 C34.5410156,30.9550781 31.8691406,33.6357422 28.5732422,33.6357422 L21.7617187,33.6357422 L21.7617187,35.0419922 L28.5732422,35.0419922 C32.6513672,35.0419922 35.9560547,31.7373047 35.9560547,27.6679688 Z" id="Shape" fill="#A03EE5" fill-rule="nonzero"></path>
                    <path d="M30.8847656,18.6503906 C30.8847656,16.9628906 29.5136719,15.6005859 27.8349609,15.6005859 L21.7792969,15.6005859 L21.7792969,17.0068359 L27.8349609,17.0068359 C28.7402344,17.0068359 29.4785156,17.7451172 29.4785156,18.6503906 C29.4785156,19.5556641 28.7402344,20.2939453 27.8349609,20.2939453 L21.7792969,20.2939453 L21.7792969,21.7001953 L27.8349609,21.7001953 C29.5136719,21.7001953 30.8847656,20.3291016 30.8847656,18.6503906 Z" id="Shape" fill="#A03EE5" fill-rule="nonzero"></path>
                </g>
            </g>
        </g>
    </g>
</svg>
